src/lib/packages/icons/src/assets/filled/file-text-shield.svg

<svg xmlns="http://www.w3.org/2000/svg" width="24" height="24" fill="none"><path fill="currentColor" d="M17.25 8.25H15c-1.58 0-2.25-.67-2.25-2.25V3.75l4.5 4.5Zm.75 1.5v3.47c0 .18-.16.29-.24.3-.15.03-.3.08-.44.15-.64.32-1.28.63-2.74 1.06-.64.18-1.08.77-1.08 1.44v1.94c0 .94.23 1.76.6 2.46.1.2-.05.43-.27.43H6c-2 0-3-1-3-3V6c0-2 1-3 3-3h5.25v3c0 2.42 1.33 3.75 3.75 3.75h3ZM11.75 16a.75.75 0 0 0-.75-.75H7a.75.75 0 0 0 0 1.5h4a.75.75 0 0 0 .75-.75Zm3-4a.75.75 0 0 0-.75-.75H7a.75.75 0 0 0 0 1.5h7a.75.75 0 0 0 .75-.75ZM21 16.116c-1.5-.389-2.25-.727-2.994-1.116-.756.389-1.505.727-3.006 1.167v1.944c0 2.333 1.875 3.5 3 3.889 1.125-.389 3-1.556 3-3.889v-1.995Z"/></svg>

<svg width="24" height="24" viewBox="0 0 24 24" fill="none" xmlns="http://www.w3.org/2000/svg">
<path d="M17.25 8.25H15C13.42 8.25 12.75 7.58 12.75 6V3.75L17.25 8.25ZM18 9.75V13.22C18 13.4 17.84 13.51 17.76 13.52C17.61 13.55 17.4601 13.6 17.3201 13.67C16.6801 13.99 16.0401 14.3 14.5801 14.73C13.9401 14.91 13.5 15.5 13.5 16.17V18.11C13.5 19.05 13.7301 19.87 14.1001 20.57C14.2001 20.77 14.0501 21 13.8301 21H6C4 21 3 20 3 18V6C3 4 4 3 6 3H11.25V6C11.25 8.42 12.58 9.75 15 9.75H18ZM11.75 16C11.75 15.586 11.414 15.25 11 15.25H7C6.586 15.25 6.25 15.586 6.25 16C6.25 16.414 6.586 16.75 7 16.75H11C11.414 16.75 11.75 16.414 11.75 16ZM14.75 12C14.75 11.586 14.414 11.25 14 11.25H7C6.586 11.25 6.25 11.586 6.25 12C6.25 12.414 6.586 12.75 7 12.75H14C14.414 12.75 14.75 12.414 14.75 12ZM21 16.116C19.5 15.727 18.7501 15.389 18.0061 15C17.2501 15.389 16.501 15.727 15 16.167C15 16.565 15 17.696 15 18.111C15 20.444 16.875 21.611 18 22C19.125 21.611 21 20.444 21 18.111C21 17.682 21 16.534 21 16.116Z" fill="currentColor"/>
</svg>
